castlevania/_inc/system.svg

<svg xmlns="http://www.w3.org/2000/svg"><g fill="#fff"><path d="m104.061 181.851c-15.453-1.341-32.352-8.041-46.056-18.237-8.757-6.492-14.216-11.952-21.327-21.741-6.591-8.863-12.981-23.697-12.981-29.878 0-2.06-1.029-3.401-3.813-5.256-13.188-8.655-19.884-13.598-19.884-14.732 0-.721 5.049-4.534 11.232-8.554l11.229-7.31 2.268-7.012c2.574-7.725 10.506-24.621 12.876-27.195.825-.929 1.548-2.267 1.548-2.886 0-1.856 19.677-21.327 24.726-24.522 17.514-10.923 32.248-14.529 56.049-13.497 18.855.721 31.629 5.046 46.158 15.351 6.489 4.635 17.307 15.454 19.368 19.369 1.854 3.503-.825 3.401-5.46-.307-8.138-6.491-16.587-10.923-29.054-15.248-6.286-2.167-9.066-2.473-22.152-2.473s-15.864.306-22.153 2.473c-26.787 9.066-44.609 27.405-51.618 52.748-2.574 9.276-2.574 28.848 0 38.536 5.463 20.709 20.298 38.121 39.462 46.466 12.468 5.355 19.368 6.904 32.556 7.417 12.16.413 13.908.206 22.152-2.368 14.322-4.43 23.803-9.89 33.897-19.371 11.023-10.404 5.976 1.546-5.769 13.6-10.817 11.024-19.886 16.794-33.897 21.327-6.696 2.268-23.697 4.743-29.054 4.226-.826-.102-5.464-.518-10.303-.926z"/><path d="m161.757 143.729c-6.8-3.605-8.24-4.02-13.496-3.707-3.298.102-6.181 0-6.489-.313-.313-.309 1.44-5.151 3.915-10.614l4.532-10.094-4.43-4.432c-10.509-10.817-7.935-25.343 6.695-37.707 2.883-2.475 6.903-7.007 8.86-9.89 1.958-2.989 3.915-5.464 4.226-5.464.411 0 1.854 1.134 3.297 2.475 3.399 3.193 8.961 4.636 13.083 3.501 1.858-.41 4.947-2.574 6.904-4.635 3.092-3.09 3.813-3.503 4.328-2.06 1.236 2.987-1.649 13.496-5.256 19.473-1.956 3.191-3.501 6.077-3.501 6.387 0 .41 1.545 2.06 3.399 3.605 8.448 7.521 9.994 17.413 4.533 29.263-4.841 10.302-18.855 28.641-21.74 28.434-.616 0-4.636-1.852-8.86-4.222zm19.473-20.916c0-11.745-6.285-19.265-14.319-17.001-3.918 1.134-8.76 5.359-11.028 9.685-1.749 3.401-1.338 3.918 4.842 5.666 5.151 1.443 17.001 7.728 18.135 9.582 1.134 1.855 2.37-2.057 2.37-7.932zm-8.138-24.212c1.443-1.03 3.605-3.712 4.943-5.977l2.37-4.224-3.603.619c-5.154.824-10.716-1.441-16.281-6.697l-4.944-4.634-1.545 3.81c-1.856 4.43-.93 9.479 2.883 15.146 3.504 5.253 10.302 6.078 16.177 1.957z"/><path d="m208.636 141.873c-2.575-3.4-6.079-6.903-7.83-7.726-3.502-1.856-3.712-2.681-.928-5.154 1.96-1.748 2.062-3.191 2.062-23.9 0-20.401-.102-22.047-1.753-21.742-4.428.721-4.119-1.341 1.032-6.696 6.079-6.285 10.197-13.911 14.112-26.48 1.755-5.665 3.195-8.758 4.227-8.758 1.131 0 1.545 2.784 1.75 15.148l.312 15.146 6.387.307 6.387.312v5.663 5.667l-6.489.31-6.39.309.207 21.326.308 21.328h4.326c2.37 0 4.638.312 4.944.719.826.826-15.657 20.404-17.1 20.404-.413 0-2.987-2.781-5.564-6.183z"/><path d="m253.042 146.303c-.928-1.028-4.119-4.736-7.315-8.142-4.944-5.456-5.463-6.486-4.122-7.623 1.341-1.131 1.545-6.387 1.545-37.499v-36.267l-4.017-7.932c-2.265-4.33-3.708-8.142-3.089-8.452 1.439-.926 2.882.31 5.148 4.944l2.165 4.227 1.546-3.09c3.813-7.419 10.611-11.951 19.989-13.292 6.489-.928 7.004.617 1.955 5.666l-4.119 4.122.204 43.582.31 43.479 3.089.308c6.391.619 6.289 1.03-1.131 8.551-8.862 8.964-10.2 9.788-12.158 7.418z"/><path d="m342.061 141.669c-2.574-2.167-7.83-6.082-11.644-8.761-6.492-4.325-6.902-4.842-5.459-6.387 1.338-1.545 1.649-4.947 1.649-19.265v-17.413l-3.609-5.049c-4.43-6.179-4.532-8.651-.515-15.453 4.124-7.214 13.704-17.723 15.249-16.691 1.755 1.028 1.443 8.964-.307 11.333-2.369 3.091-1.856 4.944 2.574 10.921l4.123 5.561.102 19.063v19.163l5.256 4.017 5.355 4.02 3.918-4.532c2.265-2.577 4.634-6.801 5.562-9.892 1.442-4.943 1.442-5.978-.105-11.85-.928-3.605-4.221-11.745-7.312-18.132-3.197-6.284-5.568-12.156-5.256-12.981.31-.722 2.37-1.857 4.534-2.369 2.163-.619 9.683-2.784 16.692-4.845 8.858-2.676 13.083-3.502 13.805-2.781.721.719-1.239 3.503-6.285 8.757l-7.418 7.625 2.574 3.915c6.699 9.892 6.801 26.377.102 37.399-3.501 5.666-16.587 19.167-24.828 25.554l-4.122 3.192z"/><path d="m390.792 141.152c-3.707-3.503-5.46-6.077-5.975-8.552-.309-1.957-.514-14.835-.309-28.54l.309-24.828 2.577-2.783c1.443-1.545 5.768-4.329 9.683-6.283 4.02-1.958 9.583-5.669 12.571-8.141 2.988-2.574 5.772-4.636 6.285-4.636.414 0 3.09 2.265 5.769 5.049 2.784 2.781 7.728 6.489 11.127 8.347 7.212 3.809 7.833 4.532 5.151 6.386-3.603 2.574-4.222 6.489-4.222 26.991 0 21.64.412 23.185 5.563 21.844 1.443-.306 2.784-.204 3.09.207.309.515-3.4 5.049-8.241 10.098l-8.859 9.168-4.02-4.636c-2.268-2.577-4.842-6.39-5.77-8.552l-1.649-4.017-8.962 8.963-8.967 8.862zm20.608-16.589c1.544-1.338 1.751-3.81 1.751-22.254l-.105-20.706-4.532-3.915-4.639-3.918v25.55c0 17.62.415 26.067 1.137 26.788 1.341 1.341 3.709.722 6.388-1.545z"/><path d="m91.386 141.771c-5.87-4.843-7.106-8.244-7.827-20.811l-.62-11.131-6.079-3.293c-3.297-1.857-6.078-3.814-6.078-4.329 0-.619 2.781-2.37 6.282-4.123 5.875-2.883 6.288-3.296 6.39-6.696.207-6.696 1.752-12.467 4.224-15.041 1.236-1.341 5.256-3.915 8.76-5.562 3.502-1.654 8.961-5.154 12.156-7.731 3.193-2.574 5.976-4.636 6.387-4.636.309 0 2.988 2.062 5.773 4.636 2.883 2.577 7.929 6.39 11.228 8.345l6.078 3.814-2.577 2.987c-2.574 2.989-2.574 3.196-2.574 24.109 0 22.152.618 25.757 4.119 24.624 4.227-1.338 2.886 1.958-3.81 9.276-3.813 4.221-7.521 7.725-8.139 7.725-1.752 0-7.008-6.285-9.273-11.128-1.032-2.37-2.268-4.118-2.678-4.016-.31.101-2.679 2.061-5.152 4.325-2.472 2.37-6.285 5.872-8.655 8.037l-4.122 3.708zm19.476-16.588 2.985-2.37-.309-20.504-.204-20.503-5.049-4.842-5.049-4.844-.102 26.684c-.102 14.634.102 27.1.411 27.615 1.032 1.75 4.122 1.132 7.317-1.236z"/><path d="m291.576 141.771c-11.435-7.624-17.513-17.722-17.513-29.055 0-4.33-.414-5.049-4.639-8.554-2.577-2.057-4.637-4.118-4.637-4.634 0-.412 2.06-2.059 4.637-3.603 3.603-2.065 4.639-3.301 4.639-5.358 0-1.548.72-5.358 1.544-8.452 1.749-6.902 7.108-12.054 17.722-17.411 3.81-1.96 8.241-4.428 9.785-5.463l2.886-1.957 1.957 3.196c1.032 1.748 4.43 8.139 7.419 14.114l5.46 10.819-2.574 2.268c-1.443 1.13-7.626 6.284-13.603 11.228-6.077 4.948-11.024 9.787-11.024 10.614 0 1.648 3.194 8.136 5.357 10.819 3.403 4.221 11.128 6.179 15.457 3.915 1.338-.723 2.472-.723 3.089-.106 1.03 1.032-17.615 20.092-20.09 20.505-.724.204-3.298-1.134-5.872-2.885zm8.551-45.439 4.017-3.398-4.636-10.51c-7.211-16.071-6.801-16.278-6.903 2.574 0 18.859-.413 18.237 7.522 11.334z"/><path d="m550.489 140.636c-2.37-2.475-4.842-5.768-5.358-7.314-1.749-4.634-1.443-49.454.312-53.679 1.443-3.5 5.253-6.284 15.039-11.024 3.093-1.545 7.731-4.636 10.305-6.9l4.635-4.126 6.495 6.078c3.501 3.301 8.241 7.008 10.506 8.142 5.049 2.574 5.976 4.017 3.503 5.875-1.853 1.335-1.958 2.987-1.958 24.828v23.388l2.577.309c1.443.206 2.988.72 3.399 1.236.516.413-2.574 4.43-6.903 8.862l-7.728 8.139-3.606-3.607c-2.058-1.958-4.842-5.666-6.18-8.345l-2.37-4.846-8.655 8.659c-4.74 4.736-8.859 8.651-9.168 8.651-.312 0-2.578-1.955-4.845-4.326zm20.298-15.453 3.09-2.268v-20.913c0-11.54-.411-20.916-.825-20.916-.411 0-2.781-1.854-5.151-4.122l-4.326-4.224v27.405c0 26.788 0 27.304 2.061 27.304 1.236 0 3.504-1.03 5.151-2.266z"/><path d="m487.024 139.604c-6.696-8.138-6.903-9.372-6.903-36.882 0-21.636-.207-24.831-1.647-25.448-.828-.31-2.886.309-4.329 1.443l-2.784 2.06-.306 22.458c-.207 15.663.102 22.873.927 23.803.927 1.131.306 2.267-2.989 5.46-2.37 2.268-4.944 5.561-5.873 7.211-.825 1.753-1.855 3.193-2.163 3.193-.207 0-3.709-3.193-7.627-7.108-6.902-6.903-7.004-7.106-5.046-8.964 1.855-1.647 1.957-3.296 1.957-24.314 0-23.284-.513-26.583-4.119-26.583-1.032 0-2.268-.514-2.577-1.029-.72-1.236 13.599-17.515 15.351-17.515 2.574 0 8.757 7.83 10.097 12.672.619 2.679 1.545 4.843 1.96 4.843.306 0 1.44-1.029 2.574-2.164 1.029-1.236 5.46-5.154 9.891-8.757l7.829-6.492 2.679 3.402c1.443 1.956 4.534 5.358 7.006 7.624l4.329 4.121-2.784 3.295-2.781 3.299v21.739c0 12.054.516 22.563 1.032 23.388.513.824 1.956 1.545 3.192 1.545 1.239 0 2.472.515 2.679 1.029.207.618-3.297 4.742-7.83 9.171l-8.034 8.037z"/><path d="m521.128 139.604c-6.903-9.066-7.008-9.578-7.008-38.735 0-26.584 0-26.791-2.268-28.335-2.367-1.545-2.367-1.545 4.947-8.965l7.316-7.419 6.799 6.802c3.813 3.707 6.906 7.109 6.906 7.52 0 .517-.93 1.648-2.064 2.682-1.959 1.648-2.061 2.989-2.061 25.24 0 24.726.207 25.965 4.634 25.965 1.24 0 2.581.309 2.992.719.618.724-15.66 17.824-17.001 17.824-.414 0-1.854-1.545-3.192-3.298z"/><path d="m521.023 49.971c-1.44-2.574-3.915-5.461-5.358-6.387-1.44-.928-2.574-2.062-2.574-2.577 0-.514 2.574-3.607 5.666-6.801l5.668-5.767 6.077 5.974 6.079 6.08-3.813 3.603c-2.061 1.96-4.84 5.151-6.387 7.111l-2.577 3.5z"/></g></svg>

<?xml version="1.0" encoding="utf-8"?>
<svg version="1.0" xmlns="http://www.w3.org/2000/svg">
  <g>
    <path d="M 104.061 181.851 C 88.608 180.51 71.709 173.81 58.005 163.614 C 49.248 157.122 43.789 151.662 36.678 141.873 C 30.087 133.01 23.697 118.176 23.697 111.995 C 23.697 109.935 22.668 108.594 19.884 106.739 C 6.696 98.084 0 93.141 0 92.007 C 0 91.286 5.049 87.473 11.232 83.453 L 22.461 76.143 L 24.729 69.131 C 27.303 61.406 35.235 44.51 37.605 41.936 C 38.43 41.007 39.153 39.669 39.153 39.05 C 39.153 37.194 58.83 17.723 63.879 14.528 C 81.393 3.605 96.127 -0.001 119.928 1.031 C 138.783 1.752 151.557 6.077 166.086 16.382 C 172.575 21.017 183.393 31.836 185.454 35.751 C 187.308 39.254 184.629 39.152 179.994 35.444 C 171.856 28.953 163.407 24.521 150.94 20.196 C 144.654 18.029 141.874 17.723 128.788 17.723 C 115.702 17.723 112.924 18.029 106.635 20.196 C 79.848 29.262 62.026 47.601 55.017 72.944 C 52.443 82.22 52.443 101.792 55.017 111.48 C 60.48 132.189 75.315 149.601 94.479 157.946 C 106.947 163.301 113.847 164.85 127.035 165.363 C 139.195 165.776 140.943 165.569 149.187 162.995 C 163.509 158.565 172.99 153.105 183.084 143.624 C 194.107 133.22 189.06 145.17 177.315 157.224 C 166.498 168.248 157.429 174.018 143.418 178.551 C 136.722 180.819 119.721 183.294 114.364 182.777 C 113.538 182.675 108.9 182.259 104.061 181.851 Z" style="fill: rgb(255, 255, 255);"/>
    <path d="M 161.757 143.729 C 154.957 140.124 153.517 139.709 148.261 140.022 C 144.963 140.124 142.08 140.022 141.772 139.709 C 141.459 139.4 143.212 134.558 145.687 129.095 L 150.219 119.001 L 145.789 114.569 C 135.28 103.752 137.854 89.226 152.484 76.862 C 155.367 74.387 159.387 69.855 161.344 66.972 C 163.302 63.983 165.259 61.508 165.57 61.508 C 165.981 61.508 167.424 62.642 168.867 63.983 C 172.266 67.176 177.828 68.619 181.95 67.484 C 183.808 67.074 186.897 64.91 188.854 62.849 C 191.946 59.759 192.667 59.346 193.182 60.789 C 194.418 63.776 191.533 74.285 187.926 80.262 C 185.97 83.453 184.425 86.339 184.425 86.649 C 184.425 87.059 185.97 88.709 187.824 90.254 C 196.272 97.775 197.818 107.667 192.357 119.517 C 187.516 129.819 173.502 148.158 170.617 147.951 C 170.001 147.951 165.981 146.099 161.757 143.729 Z M 181.23 122.813 C 181.23 111.068 174.945 103.548 166.911 105.812 C 162.993 106.946 158.151 111.171 155.883 115.497 C 154.134 118.898 154.545 119.415 160.725 121.163 C 165.876 122.606 177.726 128.891 178.86 130.745 C 179.994 132.6 181.23 128.688 181.23 122.813 Z M 173.092 98.601 C 174.535 97.571 176.697 94.889 178.035 92.624 L 180.405 88.4 L 176.802 89.019 C 171.648 89.843 166.086 87.578 160.521 82.322 L 155.577 77.688 L 154.032 81.498 C 152.176 85.928 153.102 90.977 156.915 96.644 C 160.419 101.897 167.217 102.722 173.092 98.601 Z" style="fill: rgb(255, 255, 255);"/>
    <path d="M 208.636 141.873 C 206.061 138.473 202.557 134.97 200.806 134.147 C 197.304 132.291 197.094 131.466 199.878 128.993 C 201.838 127.245 201.94 125.802 201.94 105.093 C 201.94 84.692 201.838 83.046 200.187 83.351 C 195.759 84.072 196.068 82.01 201.219 76.655 C 207.298 70.37 211.416 62.744 215.331 50.175 C 217.086 44.51 218.526 41.417 219.558 41.417 C 220.689 41.417 221.103 44.201 221.308 56.565 L 221.62 71.711 L 228.007 72.018 L 234.394 72.33 L 234.394 77.993 L 234.394 83.66 L 227.905 83.97 L 221.515 84.279 L 221.722 105.605 L 222.03 126.933 L 226.356 126.933 C 228.726 126.933 230.994 127.245 231.3 127.652 C 232.126 128.478 215.643 148.056 214.2 148.056 C 213.787 148.056 211.213 145.275 208.636 141.873 Z" style="fill: rgb(255, 255, 255);"/>
    <path d="M 253.042 146.303 C 252.114 145.275 248.923 141.567 245.727 138.161 C 240.783 132.705 240.264 131.675 241.605 130.538 C 242.946 129.407 243.15 124.151 243.15 93.039 L 243.15 56.772 L 239.133 48.84 C 236.868 44.51 235.425 40.698 236.044 40.388 C 237.483 39.462 238.926 40.698 241.192 45.332 L 243.357 49.559 L 244.903 46.469 C 248.716 39.05 255.514 34.518 264.892 33.177 C 271.381 32.249 271.896 33.794 266.847 38.843 L 262.728 42.965 L 262.932 86.547 L 263.242 130.026 L 266.331 130.334 C 272.722 130.953 272.62 131.364 265.2 138.885 C 256.338 147.849 255 148.673 253.042 146.303 Z" style="fill: rgb(255, 255, 255);"/>
    <path d="M 342.061 141.669 C 339.487 139.502 334.231 135.587 330.417 132.908 C 323.925 128.583 323.515 128.066 324.958 126.521 C 326.296 124.976 326.607 121.574 326.607 107.256 L 326.607 89.843 L 322.998 84.794 C 318.568 78.615 318.466 76.143 322.483 69.341 C 326.607 62.127 336.187 51.618 337.732 52.65 C 339.487 53.678 339.175 61.614 337.425 63.983 C 335.056 67.074 335.569 68.927 339.999 74.904 L 344.122 80.465 L 344.224 99.528 L 344.224 118.691 L 349.48 122.708 L 354.835 126.728 L 358.753 122.196 C 361.018 119.619 363.387 115.395 364.315 112.304 C 365.757 107.361 365.757 106.326 364.21 100.454 C 363.282 96.849 359.989 88.709 356.898 82.322 C 353.701 76.038 351.33 70.166 351.642 69.341 C 351.952 68.619 354.012 67.484 356.176 66.972 C 358.339 66.353 365.859 64.188 372.868 62.127 C 381.726 59.451 385.951 58.625 386.673 59.346 C 387.394 60.065 385.434 62.849 380.388 68.103 L 372.97 75.728 L 375.544 79.643 C 382.243 89.535 382.345 106.02 375.646 117.042 C 372.145 122.708 359.059 136.209 350.818 142.596 L 346.696 145.788 L 342.061 141.669 Z" style="fill: rgb(255, 255, 255);"/>
    <path d="M 390.792 141.152 C 387.085 137.649 385.332 135.075 384.817 132.6 C 384.508 130.643 384.303 117.765 384.508 104.06 L 384.817 79.232 L 387.394 76.449 C 388.837 74.904 393.162 72.12 397.077 70.166 C 401.097 68.208 406.66 64.497 409.648 62.025 C 412.636 59.451 415.42 57.389 415.933 57.389 C 416.347 57.389 419.023 59.654 421.702 62.438 C 424.486 65.219 429.43 68.927 432.829 70.785 C 440.041 74.594 440.662 75.317 437.98 77.171 C 434.377 79.745 433.758 83.66 433.758 104.162 C 433.758 125.802 434.17 127.347 439.321 126.006 C 440.764 125.7 442.105 125.802 442.411 126.213 C 442.72 126.728 439.011 131.262 434.17 136.311 L 425.311 145.479 L 421.291 140.843 C 419.023 138.266 416.449 134.453 415.521 132.291 L 413.872 128.274 L 404.91 137.237 L 395.943 146.099 L 390.792 141.152 Z M 411.4 124.563 C 412.944 123.225 413.151 120.753 413.151 102.309 L 413.046 81.603 L 408.514 77.688 L 403.875 73.77 L 403.875 99.32 C 403.875 116.94 404.29 125.387 405.012 126.108 C 406.353 127.449 408.721 126.83 411.4 124.563 Z" style="fill: rgb(255, 255, 255);"/>
    <path d="M 91.386 141.771 C 85.516 136.928 84.28 133.527 83.559 120.96 L 82.939 109.829 L 76.86 106.536 C 73.563 104.679 70.782 102.722 70.782 102.207 C 70.782 101.588 73.563 99.837 77.064 98.084 C 82.939 95.201 83.352 94.788 83.454 91.388 C 83.661 84.692 85.206 78.921 87.678 76.347 C 88.914 75.006 92.934 72.432 96.438 70.785 C 99.94 69.131 105.399 65.631 108.594 63.054 C 111.787 60.48 114.57 58.418 114.981 58.418 C 115.29 58.418 117.969 60.48 120.754 63.054 C 123.637 65.631 128.683 69.444 131.982 71.399 L 138.06 75.213 L 135.483 78.2 C 132.909 81.189 132.909 81.396 132.909 102.309 C 132.909 124.461 133.527 128.066 137.028 126.933 C 141.255 125.595 139.914 128.891 133.218 136.209 C 129.405 140.43 125.697 143.934 125.079 143.934 C 123.327 143.934 118.071 137.649 115.806 132.806 C 114.774 130.436 113.538 128.688 113.128 128.79 C 112.818 128.891 110.449 130.851 107.976 133.115 C 105.504 135.485 101.691 138.987 99.321 141.152 L 95.199 144.86 L 91.386 141.771 Z M 110.862 125.183 L 113.847 122.813 L 113.538 102.309 L 113.334 81.806 L 108.285 76.964 L 103.236 72.12 L 103.134 98.804 C 103.032 113.438 103.236 125.904 103.545 126.419 C 104.577 128.169 107.667 127.551 110.862 125.183 Z" style="fill: rgb(255, 255, 255);"/>
    <path d="M 291.576 141.771 C 280.141 134.147 274.063 124.049 274.063 112.716 C 274.063 108.386 273.649 107.667 269.424 104.162 C 266.847 102.105 264.787 100.044 264.787 99.528 C 264.787 99.116 266.847 97.469 269.424 95.925 C 273.027 93.86 274.063 92.624 274.063 90.567 C 274.063 89.019 274.783 85.209 275.607 82.115 C 277.356 75.213 282.715 70.061 293.329 64.704 C 297.139 62.744 301.57 60.276 303.114 59.241 L 306 57.284 L 307.957 60.48 C 308.989 62.228 312.387 68.619 315.376 74.594 L 320.836 85.413 L 318.262 87.681 C 316.819 88.811 310.636 93.965 304.659 98.909 C 298.582 103.857 293.635 108.696 293.635 109.523 C 293.635 111.171 296.829 117.659 298.992 120.342 C 302.395 124.563 310.12 126.521 314.449 124.257 C 315.787 123.534 316.921 123.534 317.538 124.151 C 318.568 125.183 299.923 144.243 297.448 144.656 C 296.724 144.86 294.15 143.522 291.576 141.771 Z M 300.127 96.332 L 304.144 92.934 L 299.508 82.424 C 292.297 66.353 292.707 66.146 292.605 84.998 C 292.605 103.857 292.192 103.235 300.127 96.332 Z" style="fill: rgb(255, 255, 255);"/>
    <path d="M 550.489 140.636 C 548.119 138.161 545.647 134.868 545.131 133.322 C 543.382 128.688 543.688 83.868 545.443 79.643 C 546.886 76.143 550.696 73.359 560.482 68.619 C 563.575 67.074 568.213 63.983 570.787 61.719 L 575.422 57.593 L 581.917 63.671 C 585.418 66.972 590.158 70.679 592.423 71.813 C 597.472 74.387 598.399 75.83 595.926 77.688 C 594.073 79.023 593.968 80.675 593.968 102.516 L 593.968 125.904 L 596.545 126.213 C 597.988 126.419 599.533 126.933 599.944 127.449 C 600.46 127.862 597.37 131.879 593.041 136.311 L 585.313 144.45 L 581.707 140.843 C 579.649 138.885 576.865 135.177 575.527 132.498 L 573.157 127.652 L 564.502 136.311 C 559.762 141.047 555.643 144.962 555.334 144.962 C 555.022 144.962 552.756 143.007 550.489 140.636 Z M 570.787 125.183 L 573.877 122.915 L 573.877 102.002 C 573.877 90.462 573.466 81.086 573.052 81.086 C 572.641 81.086 570.271 79.232 567.901 76.964 L 563.575 72.74 L 563.575 100.145 C 563.575 126.933 563.575 127.449 565.636 127.449 C 566.872 127.449 569.14 126.419 570.787 125.183 Z" style="fill: rgb(255, 255, 255);"/>
    <path d="M 487.024 139.604 C 480.328 131.466 480.121 130.232 480.121 102.722 C 480.121 81.086 479.914 77.891 478.474 77.274 C 477.646 76.964 475.588 77.583 474.145 78.717 L 471.361 80.777 L 471.055 103.235 C 470.848 118.898 471.157 126.108 471.982 127.038 C 472.909 128.169 472.288 129.305 468.993 132.498 C 466.623 134.766 464.049 138.059 463.12 139.709 C 462.295 141.462 461.265 142.902 460.957 142.902 C 460.75 142.902 457.248 139.709 453.33 135.794 C 446.428 128.891 446.326 128.688 448.284 126.83 C 450.139 125.183 450.241 123.534 450.241 102.516 C 450.241 79.232 449.728 75.933 446.122 75.933 C 445.09 75.933 443.854 75.419 443.545 74.904 C 442.825 73.668 457.144 57.389 458.896 57.389 C 461.47 57.389 467.653 65.219 468.993 70.061 C 469.612 72.74 470.538 74.904 470.953 74.904 C 471.259 74.904 472.393 73.875 473.527 72.74 C 474.556 71.504 478.987 67.586 483.418 63.983 L 491.247 57.491 L 493.926 60.893 C 495.369 62.849 498.46 66.251 500.932 68.517 L 505.261 72.638 L 502.477 75.933 L 499.696 79.232 L 499.696 100.971 C 499.696 113.025 500.212 123.534 500.728 124.359 C 501.241 125.183 502.684 125.904 503.92 125.904 C 505.159 125.904 506.392 126.419 506.599 126.933 C 506.806 127.551 503.302 131.675 498.769 136.104 L 490.735 144.141 L 487.024 139.604 Z" style="fill: rgb(255, 255, 255);"/>
    <path d="M 521.128 139.604 C 514.225 130.538 514.12 130.026 514.12 100.869 C 514.12 74.285 514.12 74.078 511.852 72.534 C 509.485 70.989 509.485 70.989 516.799 63.569 L 524.115 56.15 L 530.914 62.952 C 534.727 66.659 537.82 70.061 537.82 70.472 C 537.82 70.989 536.89 72.12 535.756 73.154 C 533.797 74.802 533.695 76.143 533.695 98.394 C 533.695 123.12 533.902 124.359 538.329 124.359 C 539.569 124.359 540.91 124.668 541.321 125.078 C 541.939 125.802 525.661 142.902 524.32 142.902 C 523.906 142.902 522.466 141.357 521.128 139.604 Z" style="fill: rgb(255, 255, 255);"/>
    <path d="M 521.023 49.971 C 519.583 47.397 517.108 44.51 515.665 43.584 C 514.225 42.656 513.091 41.522 513.091 41.007 C 513.091 40.493 515.665 37.4 518.757 34.206 L 524.425 28.439 L 530.502 34.413 L 536.581 40.493 L 532.768 44.096 C 530.707 46.056 527.928 49.247 526.381 51.207 L 523.804 54.707 L 521.023 49.971 Z" style="fill: rgb(255, 255, 255);"/>
  </g>
</svg>
